X:1
T:March St. Timothy
C:by Judi Morningstar
L:1/4
M:2/2
I:linebreak $
K:G
V:1 treble nm="Voice" snm="Voice"
V:1
"G" B3/2 c/ d B |"D7" A3/2 B/ c A |"Em" G3/2 A/ B G |"Em" G F E D |"C" E F/ G E |$ D G B d |1 %6
 c3/2 B/ A G | F A D c :|2 c/B/A/G/ F A | G3 ||$ d/d/ | c d A c | F A D d/d/ | B d G B | %14
 D G B, d/d/ |$ c d A c | F A D d/d/ | d D E F | G A B d/d/ ||$ c d A c | F A D d/d/ | B d G B | %22
 D G B, G |$[K:treble-8]"C" E3/2 F/ G E |"G" D G"Em" B d | c B A F | %26
